X: 040220
T: D.G. Lynch's
S: Kirk Lynch
Z: B.Black
R: reel
M: 4/4
L: 1/8
K: D
e |dcAG A3 B |GEFG AFDE |F3 G AGAB |(3gfe dc AFGA |
dcAG A3 B | GEFG AFDE | F3 G AGAB | Addc d3 :|
e |fedf ecAB|=cABG AFDE |F3 G AGAB |(3gfe dc AFGA |
|1 fddf ecAB|=cABG AFDE |F3 G AGAB |Addc d3 :|
|2 dcAG A3 B|GEFG AFDE |F3 G AGAB | Addc d4 ||
